svg/fluentui-system-icons/ic_fluent_number_symbol_dismiss_20_regular.svg

<svg width="20" height="20" viewBox="0 0 20 20" fill="none" xmlns="http://www.w3.org/2000/svg">
<path d="M8.99027 2.59815C9.04442 2.32737 8.86881 2.06396 8.59803 2.0098C8.32725 1.95565 8.06384 2.13126 8.00968 2.40204L7.08939 7.00379L3.50005 7.00342C3.22391 7.00339 3.00003 7.22722 3 7.50337C2.99997 7.77951 3.22381 8.00339 3.49995 8.00342L6.8894 8.00377L6.09088 11.9966L2.50005 11.9962C2.22391 11.9962 2.00003 12.22 2 12.4962C1.99997 12.7723 2.22381 12.9962 2.49995 12.9962L5.8909 12.9966L5.00987 17.402C4.95571 17.6728 5.13132 17.9362 5.4021 17.9903C5.67289 18.0445 5.9363 17.8689 5.99045 17.5981L6.91068 12.9967L9.20791 12.9969C9.30674 12.6483 9.4391 12.3137 9.60127 11.9969L7.11067 11.9967L7.90918 8.00388L12.9396 8.00441L12.6712 9.31137C13.0149 9.19022 13.3743 9.10226 13.7455 9.05133L13.9604 8.00451L17.4999 8.00488C17.7761 8.00491 18 7.78108 18 7.50493C18 7.22879 17.7762 7.00491 17.5001 7.00488L14.1658 7.00453L15.0674 2.61399C15.123 2.34349 14.9487 2.07918 14.6782 2.02363C14.4077 1.96808 14.1434 2.14233 14.0879 2.41282L13.1449 7.00443L8.10917 7.0039L8.99027 2.59815ZM19 14.5C19 12.0147 16.9853 10 14.5 10C12.0147 10 10 12.0147 10 14.5C10 16.9853 12.0147 19 14.5 19C16.9853 19 19 16.9853 19 14.5ZM16.3536 13.3536L15.2071 14.5L16.3536 15.6464C16.5488 15.8417 16.5488 16.1583 16.3536 16.3536C16.1583 16.5488 15.8417 16.5488 15.6464 16.3536L14.5 15.2071L13.3536 16.3536C13.1583 16.5488 12.8417 16.5488 12.6464 16.3536C12.4512 16.1583 12.4512 15.8417 12.6464 15.6464L13.7929 14.5L12.6464 13.3536C12.4512 13.1583 12.4512 12.8417 12.6464 12.6464C12.8417 12.4512 13.1583 12.4512 13.3536 12.6464L14.5 13.7929L15.6464 12.6464C15.8417 12.4512 16.1583 12.4512 16.3536 12.6464C16.5488 12.8417 16.5488 13.1583 16.3536 13.3536Z" fill="#212121"/>
</svg>

<svg xmlns="http://www.w3.org/2000/svg" width="20" height="20"><path d="M8.99 2.598a.5.5 0 0 0-.98-.196l-.92 4.602H3.5a.5.5 0 1 0 0 1h3.39l-.8 3.993H2.5a.5.5 0 0 0 0 1h3.39l-.88 4.405a.5.5 0 1 0 .98.196l.92-4.601h2.298c.099-.349.231-.683.393-1h-2.49l.798-3.993h5.03l-.268 1.307a5.55 5.55 0 0 1 1.075-.26l.214-1.046h3.54a.5.5 0 1 0 0-1h-3.334l.901-4.391a.5.5 0 1 0-.98-.201l-.942 4.591H8.109l.881-4.406ZM19 14.5a4.5 4.5 0 1 0-9 0 4.5 4.5 0 0 0 9 0Zm-2.646-1.146L15.207 14.5l1.147 1.146a.5.5 0 0 1-.708.708L14.5 15.207l-1.146 1.147a.5.5 0 0 1-.708-.708l1.147-1.146-1.147-1.146a.5.5 0 0 1 .708-.708l1.146 1.147 1.146-1.147a.5.5 0 0 1 .708.708Z"/></svg>
